X:70
T: Maude Millar
M: 4/4
L: 1/8
R: Reel
K: G
gf|edBA GEDE|G2BG DGBd|eBdB A2 GA|Beed efgf|
edBA GEDE|G2BG DGBd|eBdB A2GA|Beed e2 ||
ge|dega bg (3gfg|agef g3e|dega bg (3gfg|aged eage|
dega bg (3gfg|agef g3a|bgaf gfed|Beed ef ||
